assets/icons/legotor-logo-blue.svg

<?xml version="1.0" encoding="UTF-8"?>
<svg width="512pt" height="512pt" style="isolation:isolate" viewBox="0 0 512 512" xmlns="http://www.w3.org/2000/svg">
<defs>
<clipPath id="a">
<rect width="512" height="512"/>
</clipPath>
</defs>
<g clip-path="url(#a)">
<path d="m94.653 0h322.69c52.241 0 94.653 42.412 94.653 94.653v322.69c0 52.241-42.412 94.653-94.653 94.653h-322.69c-52.241 0-94.653-42.412-94.653-94.653v-322.69c0-52.241 42.412-94.653 94.653-94.653zm216.22 434.6v32.329l79.544-61.069-76.979-72.365v31.305h-82.113l150.26-319.73h-72.758l-187.24 389.53h189.29z" fill="#049afe" fill-rule="evenodd"/>
</g>
</svg>

<?xml version="1.0" encoding="UTF-8" standalone="no"?><!-- Generator: Gravit.io --><svg xmlns="http://www.w3.org/2000/svg" xmlns:xlink="http://www.w3.org/1999/xlink" style="isolation:isolate" viewBox="0 0 512 512" width="512pt" height="512pt"><defs><clipPath id="_clipPath_T7KOWSg0UCLzvdMdz1s5Y6kUvvJvde4w"><rect width="512" height="512"/></clipPath></defs><g clip-path="url(#_clipPath_T7KOWSg0UCLzvdMdz1s5Y6kUvvJvde4w)"><path d=" M 94.653 0 L 417.347 0 C 469.588 0 512 42.412 512 94.653 L 512 417.347 C 512 469.588 469.588 512 417.347 512 L 94.653 512 C 42.412 512 0 469.588 0 417.347 L 0 94.653 C 0 42.412 42.412 0 94.653 0 Z  M 310.871 434.599 L 310.871 466.928 L 390.415 405.859 L 313.436 333.494 L 313.436 364.799 L 231.323 364.799 L 381.578 45.072 L 308.82 45.072 L 121.585 434.599 L 310.871 434.599 L 310.871 434.599 Z " fill-rule="evenodd" fill="rgb(4,154,254)"/></g></svg>
